css/elements/social/Behance_Colored.svg

<svg fill="none" height="437" viewBox="0 0 437 437" width="437" xmlns="http://www.w3.org/2000/svg" xmlns:xlink="http://www.w3.org/1999/xlink"><clipPath id="a"><path d="m0 0h436.29v436.29h-436.29z"/></clipPath><g clip-path="url(#a)"><path d="m55 91h323v239h-323z" fill="#fff"/><g fill="#053eff"><path d="m288.45 201.78c-14.46 0-25.49 9.74-27.44 24.57h54.5c-2.32-14.83-12.79-24.57-27.06-24.57z"/><path d="m160.17 226.35h-41.06v41.24h49.49c9.18 0 16.41-10.66 16.41-19.83-.01-17.52-15.67-21.41-24.84-21.41z"/><path d="m176.85 185.1c-.037-4.396-1.812-8.599-4.937-11.69-3.125-3.092-7.347-4.821-11.743-4.81h-41.06v33h41.06c4.396.011 8.618-1.719 11.743-4.81 3.125-3.092 4.9-7.294 4.937-11.69z"/><path d="m339.41.00000052h-242.53c-12.7228-.00131346-25.3213 2.50366948-37.0759 7.37187948-11.7546 4.86822-22.4351 12.00432-31.4315 21.00072s-16.1325 19.6769-21.00072 31.4315c-4.86821 11.7546-7.37319294 24.3531-7.37187948 37.0759v242.53c0 25.694 10.20699948 50.336 28.37549948 68.504 18.1685 18.169 42.8103 28.376 68.5045 28.376h242.53c25.693-.003 50.334-10.21 68.502-28.378s28.375-42.809 28.378-68.502v-242.53c0-25.6942-10.207-50.336-28.376-68.5045-18.168-18.1685-42.81-28.37549948-68.504-28.37549948zm-88.32 143.99999948h74.15v24.7h-74.15zm-82.49 156.5h-82.39v-164.8h82.39c8.98 0 17.715 2.932 24.878 8.35 7.162 5.417 12.36 13.025 14.804 21.666 2.444 8.642 2.001 17.845-1.263 26.211-3.264 8.367-9.169 15.439-16.819 20.143 16.13 5.66 28.08 21 28.08 39-.082 13.128-5.35 25.691-14.656 34.95-9.307 9.26-21.896 14.464-35.024 14.48zm181.48-57.66h-90.64c1.2 18.17 13.25 33 29 33 15.47 0 24.09-9.92 27.15-24.75h33.46c-5.65 28-23.35 49.5-60.61 49.5-37.45 0-62-27.62-62-62 0-34.11 24.47-61.73 61.91-61.73 37.17 0 61.73 27.62 61.73 61.73z"/></g></g></svg>

<svg width="437" height="437" viewBox="0 0 437 437" fill="none" xmlns="http://www.w3.org/2000/svg">
<g clip-path="url(#clip0)">
<rect x="55" y="91" width="323" height="239" fill="white"/>
<path d="M288.45 201.78C273.99 201.78 262.96 211.52 261.01 226.35H315.51C313.19 211.52 302.72 201.78 288.45 201.78Z" fill="#053EFF"/>
<path d="M160.17 226.35H119.11V267.59H168.6C177.78 267.59 185.01 256.93 185.01 247.76C185 230.24 169.34 226.35 160.17 226.35Z" fill="#053EFF"/>
<path d="M176.85 185.1C176.813 180.704 175.038 176.501 171.913 173.41C168.788 170.318 164.566 168.589 160.17 168.6H119.11V201.6H160.17C164.566 201.611 168.788 199.881 171.913 196.79C175.038 193.698 176.813 189.496 176.85 185.1V185.1Z" fill="#053EFF"/>
<path d="M339.41 5.16257e-07H96.88C84.1572 -0.00131294 71.5587 2.50367 59.8041 7.37188C48.0495 12.2401 37.369 19.3762 28.3726 28.3726C19.3762 37.369 12.2401 48.0495 7.37188 59.8041C2.50367 71.5587 -0.00131294 84.1572 5.16257e-07 96.88L5.16257e-07 339.41C5.16257e-07 365.104 10.207 389.746 28.3755 407.914C46.544 426.083 71.1858 436.29 96.88 436.29H339.41C365.103 436.287 389.744 426.08 407.912 407.912C426.08 389.744 436.287 365.103 436.29 339.41V96.88C436.29 71.1858 426.083 46.544 407.914 28.3755C389.746 10.207 365.104 5.16257e-07 339.41 5.16257e-07V5.16257e-07ZM251.09 144H325.24V168.7H251.09V144ZM168.6 300.5H86.21V135.7H168.6C177.58 135.7 186.315 138.632 193.478 144.05C200.64 149.467 205.838 157.075 208.282 165.716C210.726 174.358 210.283 183.561 207.019 191.927C203.755 200.294 197.85 207.366 190.2 212.07C206.33 217.73 218.28 233.07 218.28 251.07C218.198 264.198 212.93 276.761 203.624 286.02C194.317 295.28 181.728 300.484 168.6 300.5V300.5ZM350.08 242.84H259.44C260.64 261.01 272.69 275.84 288.44 275.84C303.91 275.84 312.53 265.92 315.59 251.09H349.05C343.4 279.09 325.7 300.59 288.44 300.59C250.99 300.59 226.44 272.97 226.44 238.59C226.44 204.48 250.91 176.86 288.35 176.86C325.52 176.86 350.08 204.48 350.08 238.59V242.84Z" fill="#053EFF"/>
</g>
<defs>
<clipPath id="clip0">
<rect width="436.29" height="436.29" fill="white"/>
</clipPath>
</defs>
</svg>
